icons/1_Primary/Wargaming.net.svg

<svg width="1024" height="1024" viewBox="0 0 1024 1024" fill="none" xmlns="http://www.w3.org/2000/svg">
<g clip-path="url(#clip0_2_3879)">
<path d="M512 1024C794.77 1024 1024 794.77 1024 512C1024 229.23 794.77 0 512 0C229.23 0 0 229.23 0 512C0 794.77 229.23 1024 512 1024Z" fill="#BA6561"/>
<path d="M512 256C371 256 256.26 370.2 256.26 511.74C256.26 653.28 370.46 768 512 768C653.54 768 767.74 652.74 767.74 511.73C767.74 370.72 653.54 256 512 256ZM616.55 691.34C629.42 646.34 634.78 600.19 632.63 547.12C646.03 550.87 653.54 553.02 666.94 557.31C651.39 518.17 634.77 482.79 612.79 446.86C593.49 483.86 567.22 518.7 540.95 546.05L583.84 543.37C546.84 609.32 494.84 641.49 428.89 650.6C413.89 576.08 425.14 454.37 509.31 397.54L517.89 438.29C534.52 412 566.69 377.16 590.81 353C551.086 337.49 507.815 333.403 465.89 341.2C472.89 347.1 481.44 354.6 488.41 360.5C393.51 400.75 341.5 466.7 307.19 543.36C305.677 533.064 304.961 522.666 305.05 512.26C305.05 397.52 397.8 304.77 512.05 304.77C557.637 304.754 601.96 319.759 638.162 347.465C674.364 375.17 700.43 414.032 712.326 458.04C724.222 502.047 721.287 548.749 703.975 590.921C686.662 633.093 655.936 668.385 616.55 691.34Z" fill="white"/>
</g>
<defs>
<clipPath id="clip0_2_3879">
<rect width="1024" height="1024" fill="white"/>
</clipPath>
</defs>
</svg>

<svg xmlns="http://www.w3.org/2000/svg" width="1024" height="1024" fill="none">
   <g clip-path="url(#a)">
      <path fill="#BA6561" d="M512 1024c282.77 0 512-229.23 512-512S794.77 0 512 0 0 229.23 0 512s229.23 512 512 512Z"/>
      <path fill="#fff" d="M512 256c-141 0-255.74 114.2-255.74 255.74C256.26 653.28 370.46 768 512 768c141.54 0 255.74-115.26 255.74-256.27S653.54 256 512 256Zm104.55 435.34c12.87-45 18.23-91.15 16.08-144.22 13.4 3.75 20.91 5.9 34.31 10.19-15.55-39.14-32.17-74.52-54.15-110.45-19.3 37-45.57 71.84-71.84 99.19l42.89-2.68c-37 65.95-89 98.12-154.95 107.23-15-74.52-3.75-196.23 80.42-253.06l8.58 40.75c16.63-26.29 48.8-61.13 72.92-85.29a228.564 228.564 0 0 0-124.92-11.8c7 5.9 15.55 13.4 22.52 19.3-94.9 40.25-146.91 106.2-181.22 182.86a202.03 202.03 0 0 1-2.14-31.1c0-114.74 92.75-207.49 207-207.49a207.385 207.385 0 0 1 200.276 153.27 207.394 207.394 0 0 1-95.776 233.3Z"/>
   </g>
   <defs>
      <clipPath id="a">
         <path fill="#fff" d="M0 0h1024v1024H0z"/>
      </clipPath>
   </defs>
</svg>
